!!!!SEGMENT: pl-wn--sd-xvi-qu-273--125_gomolka-mikolaj--ktokolwiek-mocnie-ufa-panu-swemu.krn
!!!cenid: 15xx:330
!!!COM: Gomółka, Mikołaj
!!!COM-rismid: pe30013343
!!!CDT: ~1535->1591/04/30
!!!CNT: Polish
!!!GTL: Melodiae na psalterz polski
!!!OTL: CXXV. Ktokolwiek mocnie ufa Panu swemu,
!!!ONB: PSAL: CXXV. Qui confidunt in domino, ſicut mons Sion: non commovebitur in aeternum qui habitat in Hieruſalem.
!!!PDT: 1580
!!!AGN: Sacred
!!!SMS-siglum: PL-Wn
!!!SMS-shelfmark: SD XVI.Qu.273
!!!SMS-shelfwork: 125 G
!!!NIFC-rismid:
!!!ONB-nifc: Melodiae na psalterz polski
**kern	**text	**kern	**text	**kern	**text	**kern	**text
*part4	*part4	*part3	*part3	*part2	*part2	*part1	*part1
*staff4	*staff4	*staff3	*staff3	*staff2	*staff2	*staff1	*staff1
*clefF3	*	*clefC3	*	*clefC2	*	*clefG2	*
*k[b-B-]	*	*k[b-]	*	*k[b-B-]	*	*k[b-]	*
*b-:	*	*b-:	*	*b-:	*	*b-:	*
*M2/1	*	*M2/1	*	*M2/1	*	*M2/1	*
*met(C|)	*	*met(C|)	*	*met(C|)	*	*met(C|)	*
*I"BASSUS.	*	*I"TENOR.	*	*I"ALTUS.	*	*I"CANTUS.	*
=1-	=1	=1-	=1	=1-	=1	=1-	=1
!LO:TX:t=P:dwa bemole przy kluczu:problem	!	!	!	!LO:TX:t=P:dwa bemole przy kluczu:problem	!	!	!
1F\	KTo-	1f\	KTo-	1c/	KTo-	1cc\	KTo-
2.F\	-kol-	2f\	-kol-	2.A/	-kol-	2cc\	-kol-
.	.	1f\	-wiek	.	.	2cc\	-wiek
4G\	-wiek	.	.	4B-/	-wiek	.	.
=2-	=2	=2-	=2	=2-	=2	=2-	=2
2A\	mo-	.	.	4c/	mo-	1cc\	mo-
.	.	.	.	4d/	.	.	.
2A\	-cnie	2c/	mo-	4e\	-cnie	.	.
.	.	.	.	4f\	.	.	.
2G\	u-	2d\	-cnie	2g\	u-	2b-/	-cnie
2G\	-fa	2e\	u-	2g\	-fa	4a/	u-
.	.	.	.	.	.	4g/	.
=3-	=3	=3-	=3	=3-	=3	=3-	=3
2F/	pá-	2.f\	-fa	2c/	pá-	4a/	-fa
.	.	.	.	.	.	4b-/	.
2C/	-nu	.	.	2g\	-nu	2cc\	pá-
.	.	4e\	pá-	.	.	.	.
2F/	ſwe-	2d\	-nu	2a\	ſwe-	2cc\	-nu
2G\	.	2d\	ſwe-	4g\	.	2b-/	ſwe-
.	.	.	.	4f\	.	.	.
=4-	=4	=4-	=4	=4-	=4	=4-	=4
2A\	-mu,	2c/	-mu,	2e/	-mu,	2cc\	-mu,
2F/	Nie-	2f\	Nie-	2a\	Nie-	2cc\	Nie-
1F\	-po-	1.f\	-po-	1a\	-po-	1cc\	-po-
=5-	=5	=5-	=5	=5-	=5	=5-	=5
1.D/	-ru-	.	.	1.a\	-ru-	1.dd\	-ru-
.	.	2f\	-ru-	.	.	.	.
.	.	1d\	-ſʒo-	.	.	.	.
2BB-/	-ſʒo-	.	.	2b-\	-ſʒo-	2ff\	-ſʒo-
=6-	=6	=6-	=6	=6-	=6	=6-	=6
!!LO:PB:g=original
2C/	-ny	2e\	-ny	2g\	-ny	2ee\	-ny
2F/	ſto-	4c\	ſto-	4a\	ſto-	2ff\	ſto-
.	.	4d\	-i:	4b-\	.	.	.
2c\	.	4e\	Si-	2cc\	-i:	2.ee\	-i:
.	.	4f\	.	.	.	.	.
1c\	-i:	2.g\	-oń-	1cc\	Si-	.	.
.	.	.	.	.	.	4dd\	.
=7-	=7	=7-	=7	=7-	=7	=7-	=7
.	.	.	.	.	.	2cc\	Si-
.	.	4f\	-ſkie-	.	.	.	.
2A\	Si-	1f\	-mu	2cc\	-oń-	4ff\	-oń-
.	.	.	.	.	.	4ee\	.
2B-\	-oń-	.	.	2b-\	-ſkie-	2dd\	-ſkie-
2c\	-ſkie-	2e\	Wirʒ-	4a\	-mu	4cc\	-mu
.	.	.	.	4g\	.	4b-\	.
=8-	=8	=8-	=8	=8-	=8	=8-	=8
2F/	.	2f\	.	2a\	Wirʒ-	4a/	Wirʒ-
.	.	.	.	.	.	4b-/	.
2C/	-mu	2e\	-cho-	2g\	.	2.cc\	-cho-
2C/	Wirʒ-	2e\	-wi	2g\	-cho-	.	.
.	.	.	.	.	.	4b-/	.
2D/	-cho-	2f\	ro-	4d/	-wi	2a/	-wi
.	.	.	.	4e/	.	.	.
=9-	=9	=9-	=9	=9-	=9	=9-	=9
4BB-/	-wi	1d\	.	1f\	ro-	2b-/	ro-
4C/	.	.	.	.	.	.	.
4D/	ro-	.	.	.	.	4f/	-wien
4E/	.	.	.	.	.	4g/	.
4F/	-wien,	2c/	-wien,	2f\	-wien,	4a/	któ-
4G\	.	.	.	.	.	4b-/	.
4A\	któ-	4F/	któ-	2.f\	któ-	2cc\	-ré-
4B-\	.	4G/	.	.	.	.	.
=10-	=10	=10-	=10	=10-	=10	=10-	=10
2c\	-ré-	4A/	-ré-	.	.	2cc\	-go
.	.	4B-/	.	4g\	-ré-	.	.
1F\	-go	2.c/	-go	1a\	-go	2cc\	nie-
.	.	.	.	.	.	2cc\	-mo-
.	.	4A/	nie-	.	.	.	.
2G\	nie-	1d\	-mo-	4g\	nie-	2b-/	.
.	.	.	.	4f\	.	.	.
=11-	=11	=11-	=11	=11-	=11	=11-	=11
2A\	-mo-	.	.	4e/	-mo-	2a/	.
.	.	.	.	4d/	.	.	.
2AA/	-gą	2c#X/	-gą	4a\	-gą	2ee\	-gą
.	.	.	.	4g\	.	.	.
!!LO:PB:g=original
2D/	Gwał-	2d\	Gwał-	2.f\	Gwał-	4ff\	Gwał-
.	.	.	.	.	.	4ee\	.
2.D/	-to-	2.f\	-to-	.	.	4dd\	.
.	.	.	.	4e/	.	4cc\	.
=12-	=12	=12-	=12	=12-	=12	=12-	=12
.	.	.	.	4d/	.	1.dd\	-to-
4C/	-wné	4e\	.	4e/	-to-	.	.
2.BB-/	wiá-	4d\	-wné	2f\	-wné	.	.
.	.	4cny/	wiá-	.	.	.	.
.	.	4B-/	.	4d/	wiá-	.	.
4C/	.	4A/	.	4e/	.	.	.
4D/	-try	2B-/	-try	4f\	-try	2dd\	-wné
4E/	.	.	.	4g\	po-	.	.
=13-	=13	=13-	=13	=13-	=13	=13-	=13
4F/	po-	2A/	po-	4a\	.	2cc\	wiá-
4E/	.	.	.	4g\	.	.	.
4D/	.	2.d\	-ʒ̇yć	4f\	.	2.ff\	-try
4C/	.	.	.	4e/	-ʒ̇yć	.	.
1BB-/	-ʒ̇yć	.	.	4d/	ʒ̇a-	.	.
.	.	4c/	ʒ̇a-	4e\	.	4ee\	po-
.	.	4B-/	.	4f\	.	2dd\	-ʒ̇yć
.	.	4A/	.	4d/	.	.	.
=14-	=14	=14-	=14	=14-	=14	=14-	=14
2C/	ʒ̇ad-	2G/	-dną	2e/	.	2cc\	ʒ̇ad-
2D/	-ną	2F/	trwo-	1f\	-dną	2b-\	-ną
1C/	trwo-	1G/	.	.	.	2.cc\	trwo-
.	.	.	.	2e/	trwo-	.	.
.	.	.	.	.	.	4b-/	.
=15-	=15	=15-	=15	=15-	=15	=15-	=15
*	*	*000/left	*	*	*	*	*
000F\	-gą.	000F/	-gą.	000f\	-gą.	000a\	-gą.
==	==	==	==	==	==	==	==
*-	*-	*-	*-	*-	*-	*-	*-
!!!RDF**kern: l = terminal long
!!!system-decoration: s1,s2,s3,s4
!!!ENC: Marta Lawrence
!!!END: 2020-02-21
!!!URL-scan: https://polona.pl/item/melodiae-na-psalterz-polski,Nzk3MTM4ODQ/293 Scan on Polona
!!!IIIF: https://polona.pl/iiif/item/Nzk3MTM4ODQ/manifest.json
